X:1
T:Title
%%score { ( 1 3 ) | ( 2 4 ) }
L:1/8
M:6/8
K:Ab
V:1 treble nm="Grand Piano"
V:3 treble 
V:2 bass 
V:4 bass 
V:1
 z3 z2[Q:1/4=92] [Ec] | [Ec]2 [CA] FG[_CA] | [CA]3 [CE]2 [CE] | [CA]2 E B2 E | [Ec]3- [Ec]2 [Ec] | %5
 [Ec]2 [CA] FG[_CA] | [CA]3 [CE]2 [Ec] | .[=Dc]2 [B,DA] FGA | B3- B2 E | d2 d dc[EB] | %10
[M:5/8] [Ee]3 [Ec]2 |[M:1/8] c |[M:3/4] c2 F [Fd]2 [Fc] | [B,FB]4- [B,FB][B,AB] | %14
 [EGB]2 [EGB][GB] [Ac][DGd] | [CAe]3 [Ec]2 [A,_GA] | .[A,FA]2 [Fd] [Ec]2 [DEB] | [CEA]6 | %18
 [Ec]3 .[CE]3 | [_cf]3 .[=ce]3 | [Ec]_c =c [Fd]2 c | B3 .F3 | [=DF]2 [DF][DF] GA | [DB]3 [B,DE]3 | %24
 [CE]2 EE z d | [Ec]6 | [ce]2 [ce][ce] cf | [ce]3 [Ac]3 | [EA]2 [EA] [FB]2 [F_c] | [=Ec]6 | %30
 [Ed]3 B c[Gd] |[M:15/16] [Ae]3 [Af]3/2- [Af]3 |[M:3/4] [_Ge][GA] [Fd] [Ec]2 [DEB] | %33
[M:5/8] [CEA]-[CEA]- [CEA]3 |] %34
V:2
 z3 z2 [A,,A,] | [A,,A,]2 [A,,E,] [A,,=D,]2 [A,,F,] | [A,,E,]3 [A,,A,]2 [A,,A,] | %3
 [A,,E,]2 [C,A,] [E,G,D]2 [G,B,] | [A,,A,]3- [A,,A,]2 [A,,A,] | %5
 [A,,A,]2 [A,,E,] [A,,=D,]2 [A,,F,] | [A,,E,]3 [A,,A,]2 [A,,A,] | %7
 z[K:treble] B[K:bass]B,, [A,=D][G,E][F,B,D] | [E,G,D]3- [E,G,D]2 [E,G,] | z3 .B,3 | %10
[M:5/8] [C,A,]3 [A,,A,]2 |[M:1/8] [A,E] |[M:3/4] [F,=A,F]2 [F,A,] [B,,B,]2 [C,A,] | D,4- D,=D, | %14
 E,2 E,D, C,B,, | A,,3 [A,,A,]2 C, | z[K:treble] d[K:bass] [D,A,] [E,A,]2 E, | A,,6 | %18
 A,,C, E, .A,3 | A,,=D, F, .A,3 | z =D .E2 z E | B,,D, F, .B,3 | z2 z B,3 | E,F, _G, =G,3 | %24
 z2 .C2[K:treble] AF | A,E, C, .A,,3 | A,,C, .E,2[K:treble] A_c | A,,C, E, A,3 | %28
 [C,A,]3 [D,A,]2 [D,F,] | C,=E, G, C3 | z2 z G, z2 |[M:15/16] [C,A,]3 [D,D]3/2- [D,D]3 | %32
[M:3/4] [C,A,][C,A,] [D,A,] [E,A,]2 E, |[M:5/8] A,,-A,,- A,,3 |] %34
V:3
 x6 | z3 ._C3 | x6 | x6 | x6 | z3 ._C3 | x6 | x6 | x6 | x6 |[M:5/8] x5 |[M:1/8] x |[M:3/4] x6 | %13
 x6 | z2 z .E3 | x6 | x6 | x6 | x6 | x6 | x6 | D6 | x6 | x6 | z2 z .C3 | x6 | x6 | x6 | x6 | x6 | %30
 x6 |[M:15/16] x15/2 |[M:3/4] x6 |[M:5/8] x5 |] %34
V:4
 x6 | x6 | x6 | x6 | x6 | x6 | x6 | .[B,,F,]3[K:treble][K:bass] .B,3 | x6 | %9
 [E,B,E]2 [E,B,E] [E,E]-[E,A,E][D,G,] |[M:5/8] x5 |[M:1/8] x |[M:3/4] x6 | x6 | x6 | x6 | %16
 D,2[K:treble][K:bass] z2 z2 | x6 | x6 | x6 | A,,3 A,3 | x6 | B,,=D, .F,2 E=D | x6 | %24
 A,3 A,,3[K:treble] | x6 | z2 z A,3[K:treble] | x6 | x6 | x6 | [B,,G,]3 [E,E]- [E,A,E][D,B,] | %31
[M:15/16] x15/2 |[M:3/4] x6 |[M:5/8] x5 |] %34

